!!!!SEGMENT: pl-kozmzk--mzk-m-346--054_walczynski-franciszek--cantantibus-organis-andantino.krn
!!!cenid: 18xx:2849
!!!COM: Walczyński, Franciszek
!!!COM-rismID: pe30021989
!!!CDT: ~1852-1937
!!!CNT: Polish
!!!GTL: Cantantibus organis op. 10
!!!OTL: 54. Andantino
!!!OMV: 054
!!!PDT: 1898
!!!AGN: Secular
!!!SMS-siglum: PL-KOZmzk
!!!SMS-shelfmark: mzk/m/346
!!!SMS-shelfwork: 001-054 G
!!!SMS-variant:
!!!SMS-altvar:
!!!NIFC-rismSourceID: 1001099615
!!!NIFC-rismChildID: 1001109656
!!!NIFC-islandoraID: pl-kozmzk:7453
!!!URL-pdf-islandora: https://repozytorium.nifc.pl/islandora/object/pl-kozmzk%3A7453/datastream/PDF/view
!!!URL-scan: https://polish.musicsources.pl/pl/lokalizacje/galeria/druki-muzyczne/7581 @EN{Scan on Polish Music Sources Website} @PL{Skany w portalu Dziedzictwo Muzyki Polskiej w otwartym dostępie}
!!!ONB-nifc:
!!!OMD: Andantino.
!!!AIN: 1 empty 1 organ
!!!key:
**kern	**kern	**dynam
*part2	*part1	*part1
*staff2	*staff1	*
*Iorgan	*Iempty	*
*I"[Organo]	*	*
*clefF4	*clefG2	*
*k[b-e-a-d-]	*k[b-e-a-d-]	*
*f:	*f:	*
*M6/8	*M6/8	*
=1	=1	=1
*	*^	*
(8F\L	(8a-/L	[2.c\	pp
8En\	8g/	.	.
8F\J	8a-/J	.	.
8G\L	8b-/L	.	.
8F\	8a-/	.	.
8E\J	8g/J	.	.
=2	=2	=2	=2
!	!	!	!LO:HP:a
4F\	4a-/	4c\]	<
8D-\	8b-/	8f\	.
4C/	4.cc/)	4.en\	[
8BB-/)	.	.	.
=3	=3	=3	=3
!	!	!	!LO:DY:a:rj
(4.AA-/	8cc/L	[2.f\	fp
.	8bn/	.	.
.	8cc/J	.	.
8BB-/L	8dd-/L	.	.
8D-/	8b-X/	.	.
8BB-/J	8g/J	.	.
=4	=4	=4	=4
!	!	!	!LO:DY:a
4.C/	8a-/	4f\]	p
.	4g^/	.	>
.	.	8en\	.
4.F\)	4.f/	4.f\	]]
=5	=5	=5	=5
(4.E-\	(8b-/L	8g\L	pp
.	8a-/	8f\	.
.	8b-/J	8g\J	.
8AA-/L	4cc/	[4.a-\	.
8E-/	.	.	.
8C/J	8ee-/	.	.
=6	=6	=6	=6
8BB-/	8dd-/	4a-\]	.
4E-\	4b-/	.	.
.	.	8g\	.
8AA-\L	4.a-/)	4.a-\	.
8E-\	.	.	.
8A-\J)	.	.	.
=7	=7	=7	=7
!	!	!	!LO:DY:a:rj
(8c\L	(8ee-/L	[2.a-\	f
8Bn\	8ddn/	.	.
8c\J	8ee-/J	.	.
8d-\	8ff/L	.	.
4f^\	8ee-/	.	.
.	8dd-X/J	.	.
!!LO:LB:g=original
=8	=8	=8	=8
4e-\	8cc/	4a-\]	>
.	4b-/	.	]
8d-\	.	8g\	.
4.c;<\)	8a-/	4f\	.
.	4g;/)	.	.
.	.	8en;\	.
=9	=9	=9	=9
(>8F\L	(8a-/L	[2.c\	pp
8En\	8g/	.	.
8F\J	8a-/J	.	.
8G\L	8b-/L	.	.
8F\	8a-/	.	.
8E\J	8g/J	.	.
=10	=10	=10	=10
4F\	4a-/	4c\]	.
8D-\	8b-/	8f\	.
4C/	4.cc/)	4.en\	.
8BB-/)	.	.	.
=11	=11	=11	=11
(<4.AA-/	(8cc/L	[2.f\	fp
.	8bn/	.	.
.	8cc/J	.	.
8BB-/L	8dd-/L	.	.
8D-/	8b-X/	.	.
8BB-/J	8g/J	.	.
=12	=12	=12	=12
4.C/	8a-/	4f\]	.
!	!	!	!LO:HP:a
.	4g^/	.	>
.	.	8en\	.
!	!LO:TX:t=P:mixedbeam:problem	!	!
4.D-\)	4.f/)	8f\L	.
.	.	8G</	]]
.	.	8A-</J	.
*	*v	*v	*
=13	=13	=13
*^	*	*
8d-/L	8BB-\L	([4.f/	p <
8B-/	8D-\	.	.
8G/J	8BB-\J	.	.
8A-/L	4.C\	4f/]	[ >
8G/	.	.	.
8B-/J	.	8en/	]]
=14	=14	=14	=14
2.A-/	2.FF;\	2.f;/)	pp
*v	*v	*	*
==	==	==
*-	*-	*-
!!!system-decoration: ({s1,s2})
!!!EED: Andrzej Borzym
!!!EEV: 2021-08-09
!!!RDF**kern: > = above
!!!RDF**kern: < = below
!!!ENC: Anastazja Marusiak
!!!END: 2021-07-28
!!!YEC: Copyright 2022 Narodowy Instytut Fryderyka Chopina (https://polishscores.org)
!!!YEM: License CC-BY-4.0 (https://creativecommons.org/licenses/by/4.0)
